Sources/Octicons.swift/Resources/Media.xcassets/file-symlink-file-16.imageset/file-symlink-file-16.svg

<svg xmlns="http://www.w3.org/2000/svg" viewBox="0 0 16 16" width="16" height="16">  <path fill-rule="evenodd" clip-rule="evenodd" d="M2 1.75C2 0.783502 2.7835 0 3.75 0H9.33579C9.79992 0 10.245 0.184374 10.5732 0.512563L13.4874 3.42678C13.8156 3.75497 14 4.20008 14 4.66421V13.25C14 14.2165 13.2165 15 12.25 15H5.25C4.83579 15 4.5 14.6642 4.5 14.25C4.5 13.8358 4.83579 13.5 5.25 13.5H12.25C12.3881 13.5 12.5 13.3881 12.5 13.25V6H9.75C8.7835 6 8 5.2165 8 4.25V1.5H3.75C3.61193 1.5 3.5 1.61193 3.5 1.75V4.5C3.5 4.91421 3.16421 5.25 2.75 5.25C2.33579 5.25 2 4.91421 2 4.5V1.75ZM9.5 1.5615V4.25C9.5 4.38807 9.61193 4.5 9.75 4.5H12.4385C12.4348 4.49569 12.4308 4.4915 12.4268 4.48744L9.51256 1.57322C9.5085 1.56916 9.50431 1.56525 9.5 1.5615ZM1.5 12.2374C1.5 10.9899 2.51488 9.98074 3.76245 9.98765L4 9.98896V11.9267C4 12.145 4.26015 12.2584 4.42012 12.1099L7.30271 9.43317C7.40923 9.33426 7.40923 9.16568 7.30271 9.06677L4.42011 6.3901C4.26015 6.24156 4 6.35501 4 6.5733V8.48894L3.77075 8.48767C1.69169 8.47616 0 10.1581 0 12.2374V13.25C0 13.6642 0.335786 14 0.75 14C1.16421 14 1.5 13.6642 1.5 13.25V12.2374Z"></path></svg>

<svg xmlns="http://www.w3.org/2000/svg" width="16" height="16" viewBox="0 0 16 16"><path d="M2 1.75C2 .784 2.784 0 3.75 0h5.586c.464 0 .909.184 1.237.513l2.914 2.914c.329.328.513.773.513 1.237v8.586A1.75 1.75 0 0 1 12.25 15h-7a.75.75 0 0 1 0-1.5h7a.25.25 0 0 0 .25-.25V6H9.75A1.75 1.75 0 0 1 8 4.25V1.5H3.75a.25.25 0 0 0-.25.25V4.5a.75.75 0 0 1-1.5 0Zm-.5 10.487v1.013a.75.75 0 0 1-1.5 0v-1.012a3.748 3.748 0 0 1 3.77-3.749L4 8.49V6.573a.25.25 0 0 1 .42-.183l2.883 2.678a.25.25 0 0 1 0 .366L4.42 12.111a.25.25 0 0 1-.42-.183V9.99l-.238-.003a2.25 2.25 0 0 0-2.262 2.25Zm8-10.675V4.25c0 .138.112.25.25.25h2.688l-.011-.013-2.914-2.914-.013-.011Z"/></svg>
